X: 26890
T: Minor Rigged Ship, The
R: jig
M: 6/8
K: Aminor
|:cBA c2e|cBA c2e|dBG GAB|dBG edB|
cBA c2e|cBA c2e|dBG edB|1 A3 A2B:|2 A3 ABc||
|:e2c e2c|A2A ABc|d2B d2B|AcB ABc|
e2c e2c|AcA F2^F|G2B edB|1 A3 ABc:|2 A3 A2B||

